static/img/kroki/066a141dc1c07282cf9cbc9592db609d.svg

<?xml version="1.0" encoding="us-ascii" standalone="no"?><svg xmlns="http://www.w3.org/2000/svg" xmlns:xlink="http://www.w3.org/1999/xlink" contentStyleType="text/css" height="152px" preserveAspectRatio="none" style="width:239px;height:152px;" version="1.1" viewBox="0 0 239 152" width="239px" zoomAndPan="magnify"><defs/><g><!--class azure_resource--><g id="elem_azure_resource"><rect codeLine="22" fill="#3D176E" height="39.7891" id="azure_resource" rx="2.5" ry="2.5" style="stroke:#000D19;stroke-width:0.5;" width="168" x="35.5" y="106.79"/><ellipse cx="50.5" cy="126.6845" fill="#ADD1B2" rx="11" ry="11" style="stroke:#181818;stroke-width:1.0;"/><path d="M53.4688,132.3252 Q52.8906,132.622 52.25,132.7627 Q51.6094,132.9189 50.9063,132.9189 Q48.4063,132.9189 47.0781,131.2783 Q45.7656,129.622 45.7656,126.497 Q45.7656,123.372 47.0781,121.7158 Q48.4063,120.0595 50.9063,120.0595 Q51.6094,120.0595 52.25,120.2158 Q52.9063,120.372 53.4688,120.6689 L53.4688,123.3877 Q52.8438,122.8095 52.25,122.5439 Q51.6563,122.2627 51.0313,122.2627 Q49.6875,122.2627 49,123.3408 Q48.3125,124.4033 48.3125,126.497 Q48.3125,128.5908 49,129.6689 Q49.6875,130.7314 51.0313,130.7314 Q51.6563,130.7314 52.25,130.4658 Q52.8438,130.1845 53.4688,129.6064 L53.4688,132.3252 Z " fill="#000000"/><text fill="#D9B8FF" font-family="Helvetica" font-size="17" lengthAdjust="spacing" textLength="126" x="69.5" y="132.5698">azure_resource</text></g><!--class azure_resource_group--><g id="elem_azure_resource_group"><rect codeLine="24" fill="#3D176E" height="39.7891" id="azure_resource_group" rx="2.5" ry="2.5" style="stroke:#000D19;stroke-width:0.5;" width="225" x="7" y="7"/><ellipse cx="22" cy="26.8945" fill="#ADD1B2" rx="11" ry="11" style="stroke:#181818;stroke-width:1.0;"/><path d="M24.9688,32.5352 Q24.3906,32.832 23.75,32.9727 Q23.1094,33.1289 22.4063,33.1289 Q19.9063,33.1289 18.5781,31.4883 Q17.2656,29.832 17.2656,26.707 Q17.2656,23.582 18.5781,21.9258 Q19.9063,20.2695 22.4063,20.2695 Q23.1094,20.2695 23.75,20.4258 Q24.4063,20.582 24.9688,20.8789 L24.9688,23.5977 Q24.3438,23.0195 23.75,22.7539 Q23.1563,22.4727 22.5313,22.4727 Q21.1875,22.4727 20.5,23.5508 Q19.8125,24.6133 19.8125,26.707 Q19.8125,28.8008 20.5,29.8789 Q21.1875,30.9414 22.5313,30.9414 Q23.1563,30.9414 23.75,30.6758 Q24.3438,30.3945 24.9688,29.8164 L24.9688,32.5352 Z " fill="#000000"/><text fill="#D9B8FF" font-family="Helvetica" font-size="17" lengthAdjust="spacing" textLength="183" x="41" y="32.7798">azure_resource_group</text></g><!--link azure_resource_group to azure_resource--><g id="link_azure_resource_group_azure_resource"><path codeLine="26" d="M119.5,47.22 C119.5,64.36 119.5,83.27 119.5,100.41 " fill="none" id="azure_resource_group-to-azure_resource" style="stroke:#1A83AF;stroke-width:2.0;"/><polygon fill="#1A83AF" points="119.5,106.41,123.5,97.41,119.5,101.41,115.5,97.41,119.5,106.41" style="stroke:#1A83AF;stroke-width:2.0;"/></g><!--SRC=[XP31QeD048RlUOe5pm6jjEgbO8JGNa9fUYibZEviNDHTcLqRaj9tRqtQibMJNEVxPkQVAIL7Xarhzwp19aSoCrD9rG91mr8YlSjqhObvGe08eo5SQcMl2Yjea3rW_OvM5Z0qNafPL0gDOJSEMa1HRKbtYf_6Mm9blX4gwrXP3SQarfBCEujE69xaiH13SpZK2taGtU58qyIHVXJVztcG39MhgoxU_MUivG5Pu3vjfIsEOevM7AsBANl32Jawz9UVpVW4d4krPRTExVcKYHJIl_gw1AvtlIsWDkuQOv5GstsBsUWgJ68keadvyPnSz9zZSEW8DuH6TrGW-vXzJe9DFw4zuaamV_M2D0xJvTlyVj3w1G00]--></g></svg>

<svg xmlns="http://www.w3.org/2000/svg" width="239" height="152" viewBox="0 0 239 152"><rect width="168" height="39.789" x="35.5" y="106.79" fill="#3D176E" rx="2.5" ry="2.5" style="stroke:#000d19;stroke-width:.5"/><circle cx="50.5" cy="126.684" r="11" fill="#ADD1B2" style="stroke:#181818;stroke-width:1"/><path d="M53.469 132.325q-.578.297-1.219.438-.64.156-1.344.156-2.5 0-3.828-1.64-1.312-1.657-1.312-4.782t1.312-4.781q1.328-1.656 3.828-1.656.703 0 1.344.156.656.156 1.219.453v2.719q-.625-.579-1.219-.844-.594-.281-1.219-.281-1.343 0-2.031 1.078-.687 1.062-.687 3.156t.687 3.172q.688 1.062 2.031 1.062.625 0 1.219-.265.594-.281 1.219-.86z"/><text x="69.5" y="132.57" fill="#D9B8FF" font-family="Helvetica" font-size="17" textLength="126">azure_resource</text><rect width="225" height="39.789" x="7" y="7" fill="#3D176E" rx="2.5" ry="2.5" style="stroke:#000d19;stroke-width:.5"/><circle cx="22" cy="26.895" r="11" fill="#ADD1B2" style="stroke:#181818;stroke-width:1"/><path d="M24.969 32.535q-.578.297-1.219.438-.64.156-1.344.156-2.5 0-3.828-1.64-1.312-1.657-1.312-4.782t1.312-4.781q1.328-1.656 3.828-1.656.703 0 1.344.156.656.156 1.219.453v2.719q-.625-.578-1.219-.844-.594-.281-1.219-.281-1.343 0-2.031 1.078-.687 1.062-.687 3.156t.687 3.172q.688 1.062 2.031 1.062.625 0 1.219-.265.594-.281 1.219-.86z"/><text x="41" y="32.78" fill="#D9B8FF" font-family="Helvetica" font-size="17" textLength="183">azure_resource_group</text><path fill="none" d="M119.5 47.22v53.19" style="stroke:#1a83af;stroke-width:2"/><path fill="#1A83AF" d="m119.5 106.41 4-9-4 4-4-4z" style="stroke:#1a83af;stroke-width:2"/></svg>
